X:1     %Music
T:Hieland Laddie
B:Singing Together, Spring 1968, BBC Publications
F:http://www.folkinfo.org/songs
M:2/4     %Meter
L:1/16     %
K:F
F3G A2A2 |B2G2 A4 |A2G2 G2(FA) |A2G2 G2A2 |
w:Whaur ha'e ye been a' the day? Bon-nie lad-die,_ Hie-land lad-die; 
F3G A2c2 |(BA)(GF) (A3G) |F2D2 D2C2 |F2D2 D2C2 |
w:Saw ye him that's far_ a-*way?_ Bon-nie lad-die, Hie-land lad-die; 
d2f2 c2d2 |(BA)(GF) A4 |A2G2 G2(FG) |A2G2 G2A2 |
w:On his heid a bon-*net_ blue, Bon-nie lad-die,_ Hie-land lad-die; 
d2f2 c2d2 |(BA)(GF) A4 |F2D2 D2C2 |F2D2 D2C2 |]
w:Tar-tan plaid and Hie-*land_ trews, Bon-nie lad-die, Hie-land lad-die. 